!!!OTL: ALS ICH AUF BERGEN STAND
!!!ARE: Europa, Mitteleuropa, Deutschland, Hochwald, Thalsang
!!!SCT: E0705
!!!YEM: Copyright 1995, estate of Helmut Schaffrath.
**kern
*ICvox
*Ivox
*M3/4
*k[]
*C:
{8g
8e
8f
=1
8.g
16a
8g
8g
8f
8e
=2
8.f
16g
8f}
{8e
8f
8d
=3
8.b
16b
8b
8a
8g
8f
=4
4e
8r}
{8g
8e
8f
=5
8.g
16a
8g
8g
8f
8e
=6
8.f
16g
8f}
{8e
8f
8d
=7
4.b
8a
8g
8f
=8
4e
8r}
==
!!!AGN: Liebes - Lied, Leid, Klage
!!!ONB: ESAC (Essen Associative Code) Database: ERK2
!!!AMT: simple triple
!!!AIN: vox
!!!EED: Helmut Schaffrath
!!!EEV: 1.0
*-
